X:1913
T:Fasten the Leg
O:england
M:6/8
L:1/8
R:jig
K:G
A||:~B3 {d}BAB|GBd gdB|A{d}BA AGA|Bee dBA|~B3 {d}BAB|GBd g2f|efg eag|1 f
dd d2c :|
2 fdd def ||: ~g3 ~f3|e{a}fe dBA|~G3 AGA|Bee def|~g3 ~f3|e{a}fe dBd|efg
eag|1 fdd def :|
2 fdd d2 c ||


